X:1
T:Sir Alexander McDonald's Reel. Roose.0121
L:1/8
Q:1/4=120
M:2/2
I:linebreak $
K:D
V:1 treble 
V:1
 FA Af/g/ afed | gfed BdBG | FA Af/g/ afed | (e/f/g) (f/g/a) e2 d2 :: FAAB ABAF |$ G/G/G G2 GABG | %6
 FAAB ABAF | GBAF E2 D2 :: (e/f/a) ab abaf | g/g/g g2 gabg |$ (f/g/a) ab abaf | gafg e2 d2 :| %12
